!!!COM: Fux, Johann Joseph
!!!OMD: Gradus ad Parnassum Exercise
!!!YEC: CC0 1.0 Universal (Public Domain). Mark Gotham and FourScoreAndMore.org waive all rights to this document.
**kern	**kern	**kern
*part3	*part2	*part1
*staff3	*staff2	*staff1
*I"3	*I"2	*I"1
*I'Pno	*I'Pno	*I'Pno
!!LO:PB:g=z
*clefGv2	*clefG2	*clefG2
*k[]	*k[]	*k[]
!!LO:TX:omd:t=
*M4/4	*M4/4	*M4/4
=364	=364	=364
!	!	!LO:TX:a:t=Fig. 146; Species&colon; 4; Modal final&colon; e; Cantus firmus&colon; 2
1E	1e	2r
.	.	[2ee\
=365	=365	=365
1A	1c	2ee\]
.	.	[2cc\
=366	=366	=366
1G	1d	2cc\]
.	.	[2b\
=367	=367	=367
1A	1c	2b\]
.	.	[2a/
=368	=368	=368
1F	1A	2a/]
.	.	[2cc\
=369	=369	=369
1F	1a	2cc\]
.	.	[2dd\
=370	=370	=370
1E	1g	2dd\]
.	.	[2cc\
=371	=371	=371
1C	1e	2cc\]
.	.	[2a/
=372	=372	=372
1D	1f	2a/]
.	.	2b\
=373	=373	=373
1E	1e	1g#X
==	==	==
*-	*-	*-
!!!software: music21 v.9.7.1
!!!software: music21 v.9.7.1
!!!software: MuseScore 3.4.2
!!!RDF**kern: > = above
!!!RDF**kern: < = below
